image/fortox-icons2.svg

<svg fill="none" height="32" viewBox="0 0 32 32" width="32" xmlns="http://www.w3.org/2000/svg"><g fill="#4b4b4b"><path d="m16 30c-7.73199 0-14-6.268-14-14 0-7.73199 6.26801-14 14-14 7.732 0 14 6.26801 14 14 0 7.732-6.268 14-14 14zm0 2c8.8366 0 16-7.1634 16-16 0-8.83656-7.1634-16-16-16-8.83656 0-16 7.16344-16 16 0 8.8366 7.16344 16 16 16z"/><path d="m8.56959 19.1344c.47806-.2765 1.08979-.1132 1.36633.3649 1.21188 2.0949 3.47438 3.5007 6.06418 3.5007 2.5897 0 4.8522-1.4058 6.0641-3.5007.2765-.4781.8883-.6414 1.3663-.3649.4781.2765.6414.8883.3649 1.3663-1.5546 2.6875-4.4628 4.4993-7.7953 4.4993-3.3326 0-6.24076-1.8118-7.79539-4.4993-.27655-.478-.11318-1.0898.36488-1.3663z"/><path d="m14 13c0 1.6569-.8954 3-2 3s-2-1.3431-2-3 .8954-3 2-3 2 1.3431 2 3z"/><path d="m22 13c0 1.6569-.8954 3-2 3s-2-1.3431-2-3 .8954-3 2-3 2 1.3431 2 3z"/></g></svg>

<svg width="32" height="32" viewBox="0 0 32 32" fill="none" xmlns="http://www.w3.org/2000/svg">
<path d="M16 30C8.26801 30 2 23.732 2 16C2 8.26801 8.26801 2 16 2C23.732 2 30 8.26801 30 16C30 23.732 23.732 30 16 30ZM16 32C24.8366 32 32 24.8366 32 16C32 7.16344 24.8366 0 16 0C7.16344 0 0 7.16344 0 16C0 24.8366 7.16344 32 16 32Z" fill="#4B4B4B"/>
<path d="M8.56959 19.1344C9.04765 18.8579 9.65938 19.0212 9.93592 19.4993C11.1478 21.5942 13.4103 23 16.0001 23C18.5898 23 20.8523 21.5942 22.0642 19.4993C22.3407 19.0212 22.9525 18.8579 23.4305 19.1344C23.9086 19.4109 24.0719 20.0227 23.7954 20.5007C22.2408 23.1882 19.3326 25 16.0001 25C12.6675 25 9.75934 23.1882 8.20471 20.5007C7.92816 20.0227 8.09153 19.4109 8.56959 19.1344Z" fill="#4B4B4B"/>
<path d="M14 13C14 14.6569 13.1046 16 12 16C10.8954 16 10 14.6569 10 13C10 11.3431 10.8954 10 12 10C13.1046 10 14 11.3431 14 13Z" fill="#4B4B4B"/>
<path d="M22 13C22 14.6569 21.1046 16 20 16C18.8954 16 18 14.6569 18 13C18 11.3431 18.8954 10 20 10C21.1046 10 22 11.3431 22 13Z" fill="#4B4B4B"/>
</svg>
